X:1
T:"Dans" ropte Felen
T:W Peterson-Berger (1867-1942)
T:"Dans" ropte Felen
T:©CPDL Edition may be freely distributed, duplicated, performed and recorded PA Aglert
T:©CPDL Edition may be freely distributed, duplicated, performed and recorded PA Aglert
T:©CPDL Edition may be freely distributed, duplicated, performed and recorded PA Aglert
T:©CPDL Edition may be freely distributed, duplicated, performed and recorded PA Aglert
T:©CPDL Edition may be freely distributed, duplicated, performed and recorded PA Aglert
T:©CPDL Edition may be freely distributed, duplicated, performed and recorded PA Aglert
C:W Peterson-Berger (1867-1942)
Z:©CPDL Edition may be freely distributed, duplicated, performed and recorded
Z:PA Aglert
%%score [ 1 2 3 4 ]
L:1/8
Q:1/4=90
M:6/8
K:G
V:1 treble nm="S"
V:2 treble nm="A"
V:3 treble-8 nm="T"
V:4 bass nm="B" snm="a"
V:1
"^Vivo."!f! !>!d>zB/d/ cBA | (G/A/)BG DDG |!mf! F2 A cBA | GBG!<(! e3- | e6!<)! | %5
w: Dans! rop- te fe- len og|skrat- * ted på stræn- gen, så|lens- mands- dren- gen sprat|up og sa "ho".||
!f! !>!d>zB/d/ cBA | (GB)G EEG |!mf!!<(! F>B!<)!^c dBd |!>(! ^c^AF!>)! B3- | B6 | %10
w: Stans! rop- te O- la, slog|be- * na un- da'n så|lens- mand datt af en og|gjen- ter- ne lo.||
!f! !courtesy!=c>zF/E/ DFA | B3 B2 B | (e2 c) A2 F | (d2 B) G2 E |!p!"^cresc." A>AA A^GA | %15
w: Hop! sa' en E- rik og|spænd- te, ja|spænd- * te i|ta- * get så|bjel- ke- ne bra- ged og|
!<(! ^AB^c!<)!!f! (d3 |!>(! ^c3!>)! =c3) | B z z z2!mf! B | B3 G2 G |!p!!<(! F>FF FFF!<)! | %20
w: væg- ge- ne skreg.||Stop! sa'n|El- ling og|tog ham i kra- gen og|
!<(! F^A!<)!^c!f! d!>(!B!>)!B |!<(! d3!<)! B2 !courtesy!=c |!>(! B3 A2 E!>)! |!p!!<(! (E6 | %24
w: holdt ham mod da- gen, du|er nok for|vek, ja for|vek!|
 D3 d3)!<)! |!f! !>!d>zB/d/ cBA | (G/A/)BG DDG |!mf! FAB cBA | GBG!<(! e3- | e6!<)! | %30
w: |Hej! sa' en Ras- mus tog|Ran- * di om li- ve', "nu|skynd dig at gi- ve den|kys- sen du ved!"||
!f! !>!d>zB/d/ cBA | GBG EE_E |!<(! D>GB!<)! d2 B | z2!f! G ABD | !fermata!G6 |] %35
w: Nej! svar- te Ran- di, en|ör- fig hun gav ham og|sled sig i- fra ham:|"Der har du Be-|sked!"|
V:2
!f! !>!B>zG/B/ AGF | GGD B,B,B, |!mf! D2 E FDF | GGG!<(! (G3- | G3!<)! A3) |!f! !>!B>zG/B/ AGF | %6
w: Dans! rop- te fe- len og|skrat- ted på stræn- gen, så|lens- mands- dren- gen sprat|up og sa "ho".||Stans! rop- te O- la, slog|
 (EG)E B,B,E |!mf!!<(! D>D!<)!E FBF |!>(! EFE!>)! D3- | D6- | D6- | D3- D z z |!f! c>zF/E/ DFA | %13
w: be- * na un- da'n så|lens- mand datt af en og|gjen- ter- ne lo.||||Hop! sa' en E- rik og|
 B3 B2 B |!p!"^cresc." F>FF F^EF |!<(! GA!<)!G!f! (F3 |!>(! G3!>)! A3) | F z z z2!mf! ^D | %18
w: spænd- te så|bjel- ke- ne bra- ged og|væg- ge- ne skreg.||Stop! sa'n|
 E3 G2 E |!p!!<(! D>DD DDD!<)! |!<(! DE!<)!D!f! C!>(!C!>)!C |!<(! =F3!<)! E2 D |!>(! C3 E2 C!>)! | %23
w: El- ling og|tog ham i kra- gen og|holdt ham mod da- gen, du|er nok for|vek, ja for|
!p!!<(! c6- | c6!<)! |!f! !>!B>zG/B/ AGF | GGD B,B,B, |!mf! DEG FDF | GGG!<(! (G3- | G3!<)! A3) | %30
w: vek!||Hej! sa' en Ras- mus tog|Ran- di om li- ve', "nu|skynd dig at gi- ve den|kys- sen du ved!"||
!f! !>!B>zG/B/ AGF | EEE EA,^A, |!<(! B,>B,D!<)! G2 D | z2 z z2!mp! C | %34
w: Nej! svar- te Ran- di, en|ör- fig hun gav ham og|sled sig i- fra ham:|"Der|
"^rit." B,!>(!B,C!>)! !fermata!B,3 |] %35
w: har du Be- sked!"|
V:3
!f! !>!g>zd/d/ ddc | BdB GGd |!mf! (cA)c edc | BdB!<(! (g3- | g3!<)! f3) |!f! !>!g>zd/d/ ddc | %6
w: Dans! rop- te fe- len og|skrat- ted på stræn- gen, så|lens- * mands- dren- gen sprat|up og sa "ho".||Stans! rop- te O- la, slog|
 (Be)B GGB |!mf!!<(! B>B^A!<)! BdB |!>(! ^AcA!>)! F3- | F6- | F3- F z z |!f! g>zB/A/ GBd | %12
w: be- * na un- da'n så|lens- mand datt af en og|gjen- ter- ne lo.|||Hop! sa' en E- rik og|
 f3- fed | G3 G2 G |!p!"^cresc." d>dd ddd |!<(! dA!<)!A!f! A3- |!>(! A6!>)! | B z z z2 z | %18
w: spænd- * te i|ta- get så|bjel- ke- ne bra- ged og|væg- ge- ne skreg.||Stop!|
 z2!mf! G ccB |!p!!<(! ^A>AA AA!<)!A |!<(! ^A^c!<)!A!f! F!>(!GF!>)! |!<(! !courtesy!=A3!<)! ^G2 G | %22
w: sa'n El- ling og|tog ham i kra- gen og|holdt ham mod da- gen, du|er nok for|
!>(! A3 c2 e!>)! |!p!!<(! (g6- | g3 f3)!<)! |!f! !>!g>zd/d/ ddc | BdB GGd |!mf! ccd edc | %28
w: vek, ja for|vek!||Hej! sa' en Ras- mus tog|Ran- di om li- ve', "nu|skynd dig at gi- ve den|
 BdB!<(! (g3- | g3 f3)!<)! |!f! !>!g>zd/d/ ddc | BBB BAG |!<(! G>DG!<)! B2 G | z2 z z2!mp! F | %34
w: kys- sen du ved!"||Nej! svar- te Ran- di, en|ör- fig hun gav ham og|sled sig i- fra ham:|"Der|
"^rit." G!>(!DE!>)! !fermata!D3 |] %35
w: har du Be- sked!"|
V:4
!f! !>!G,>zG,/G,/ G,G,G, | G,G,G, G,G,G, |!mf! D,2 D, D,D,D, | G,G,G,!<(! C3- | C6!<)! | %5
w: Dans! rop- te fe- len og|skrat- ted på stræn- gen, så|lens- mands- dren- gen sprat|up og sa "ho".||
!f! !>!G,>zG,/G,/ F,G,D, | (E,3 G,2) E, |!mf!!<(! F,3!<)! F,2 F, | F,3 B,,2 B,, | %9
w: Stans! rop- te O- la, slog|be- * na|un- da'n så|lens- mand datt|
 B,,B,,B,, B,,B,,B,, | (A,,6 | G,,3- G,,) z z | z6 |!f! D>zG,/F,/ E,G,B, | %14
w: af en og gjen- ter- ne|lo.|||Hop! sa' en E- rik og|
!p!"^cresc." A,>A,A, A,B,A, |!<(! G,F,!<)!E,!f! D,!>(!D,D, | E,E,!>)!E, (F,2 E,) | %17
w: spænd- te i ta- get så|bjel- ke- ne bra- ged og|væg- ge- ne skreg. *|
 ^D,z!f!B,, B,B,B, | G,>F,G, E,E,D, |!p!!<(! ^C,3 F,2!<)! F, |!<(! F,3!<)!!f! B,,2!>(! B,,!>)! | %21
w: Stop! sa'n El- ling og|tog ham i kra- gen og|holdt ham mod|da- gen, du|
!<(! B,,3!<)! E,2 E, |!>(! E,3 A,,2 A,,!>)! |!p!!<(! A,6- | A,6!<)! |!f! !>!G,>zG,/G,/ G,G,G, | %26
w: er nok for|vek, ja for|vek!||Hej! sa' en Ras- mus tog|
 G,G,G, G,G,G, |!mf! D,D,D, D,D,D, | G,G,G,!<(! C3- | C6!<)! |!f! !>!G,>zG,/G,/ D,G,D, | %31
w: Ran- di om li- ve', "nu|skynd dig at gi- ve den|kys- sen du ved!"||Nej! svar- te Ran- di, en|
 E,G,E, C,C,^C, |!<(! D,>D,D,!<)! D,2 D, | z2 z z2!mp! D, | %34
w: ör- fig hun gav ham og|sled sig i- fra ham:|"Der|
"^rit." G,,!>(!G,,G,,!>)! !fermata!G,,3 |] %35
w: har du Be- sked!"|

